assets/images/AWS/Compute/EC2/Compute_AmazonEC2_CloudWatch.svg

<?xml version="1.0" encoding="UTF-8" standalone="no"?>
<!-- Generator: Adobe Illustrator 16.0.0, SVG Export Plug-In . SVG Version: 6.00 Build 0)  -->

<svg
   xmlns:dc="http://purl.org/dc/elements/1.1/"
   xmlns:cc="http://creativecommons.org/ns#"
   xmlns:rdf="http://www.w3.org/1999/02/22-rdf-syntax-ns#"
   xmlns:svg="http://www.w3.org/2000/svg"
   xmlns="http://www.w3.org/2000/svg"
   xmlns:sodipodi="http://sodipodi.sourceforge.net/DTD/sodipodi-0.dtd"
   xmlns:inkscape="http://www.inkscape.org/namespaces/inkscape"
   version="1.2"
   x="0px"
   y="0px"
   width="100px"
   height="100px"
   viewBox="0 0 100 100"
   xml:space="preserve"
   id="svg2"
   inkscape:version="0.91 r13725"
   sodipodi:docname="Compute_AmazonEC2_CloudWatch.svg"><metadata
     id="metadata47"><rdf:RDF><cc:Work
         rdf:about=""><dc:format>image/svg+xml</dc:format><dc:type
           rdf:resource="http://purl.org/dc/dcmitype/StillImage" /></cc:Work></rdf:RDF></metadata><defs
     id="defs45" /><sodipodi:namedview
     pagecolor="#ffffff"
     bordercolor="#666666"
     borderopacity="1"
     objecttolerance="10"
     gridtolerance="10"
     guidetolerance="10"
     inkscape:pageopacity="0"
     inkscape:pageshadow="2"
     inkscape:window-width="1280"
     inkscape:window-height="985"
     id="namedview43"
     showgrid="false"
     inkscape:zoom="7.4579687"
     inkscape:cx="50.26817"
     inkscape:cy="50"
     inkscape:window-x="0"
     inkscape:window-y="0"
     inkscape:window-maximized="1"
     inkscape:current-layer="svg2" /><g
     id="Layer_3"
     transform="matrix(1.7587056,0,0,1.7587056,-17.743848,-59.50528)" /><g
     id="Layer_1"
     transform="matrix(1.7587056,0,0,1.7587056,-37.93528,-37.93528)"><g
       id="g6"><g
         id="g8"><path
           d="m 76.612,70.723 0,2.975 c 0,0.23 -0.016,0.457 -0.049,0.68 l 0,-2.975 c 0.034,-0.221 0.049,-0.448 0.049,-0.68"
           id="path10"
           inkscape:connector-curvature="0"
           style="fill:#9d5025" /><path
           d="m 76.563,71.402 0,2.975 c -0.039,0.262 -0.098,0.518 -0.174,0.764 l 0,-2.973 c 0.077,-0.244 0.135,-0.502 0.174,-0.766"
           id="path12"
           inkscape:connector-curvature="0"
           style="fill:#9d5025" /><path
           d="m 76.39,72.168 0,2.973 c -0.096,0.291 -0.217,0.568 -0.361,0.832 l 0,-2.973 c 0.144,-0.262 0.265,-0.541 0.361,-0.832"
           id="path14"
           inkscape:connector-curvature="0"
           style="fill:#9d5025" /><path
           d="m 76.028,73 0,2.973 c -0.809,1.467 -2.379,2.457 -4.186,2.457 l 0,-2.973 c 1.807,0 3.378,-0.988 4.186,-2.457"
           id="path16"
           inkscape:connector-curvature="0"
           style="fill:#9d5025" /></g><path
         d="m 76.612,70.723 0,2.975 c 0,2.619 -2.131,4.732 -4.77,4.732 l -1.574,-3.875 c 2.641,0 6.344,-1.211 6.344,-3.832 z"
         id="path18"
         inkscape:connector-curvature="0"
         style="fill:#9d5025" /><g
         id="g20"><path
           d="m 28.157,75.457 0,2.973 c -2.639,0 -4.77,-2.113 -4.77,-4.732 l 0,-2.975 c 0.001,2.621 2.132,4.734 4.77,4.734"
           id="path22"
           inkscape:connector-curvature="0"
           style="fill:#9d5025" /></g><path
         d="m 28.157,75.457 0,2.973 c -2.639,0 -4.77,-2.113 -4.77,-4.732 l 0,-2.975 c 0.001,2.621 2.132,4.734 4.77,4.734 z"
         id="path24"
         inkscape:connector-curvature="0"
         style="fill:#9d5025" /><g
         id="g26"><polygon
           points="26.769,74.721 71.843,75.457 71.843,78.43 28.157,78.43 "
           id="polygon28"
           style="fill:#9d5025" /></g><g
         id="g30"><path
           d="m 71.843,21.57 c 2.639,0 4.77,2.113 4.77,4.734 l 0,44.418 c 0,2.621 -2.131,4.734 -4.77,4.734 l -43.686,0 c -2.639,0 -4.77,-2.113 -4.77,-4.734 l 0,-44.417 c 0,-2.621 2.131,-4.734 4.77,-4.734 l 43.686,0 z"
           id="path32"
           inkscape:connector-curvature="0"
           style="fill:#f58536" /></g><rect
         x="51.104"
         y="54.936001"
         width="5.6820002"
         height="11.285"
         id="rect34"
         style="fill:#ffffff" /><rect
         x="58.070999"
         y="49.143002"
         width="5.6859999"
         height="17.077999"
         id="rect36"
         style="fill:#ffffff" /><rect
         x="65.036003"
         y="58.789001"
         width="5.6859999"
         height="7.4320002"
         id="rect38"
         style="fill:#ffffff" /><polygon
         points="50.644,67.881 50.644,69.305 50.644,70.123 51.466,70.123 70.312,70.123 71.134,70.123 71.134,69.305 71.134,67.881 71.134,67.062 70.312,67.062 51.466,67.062 50.644,67.062 "
         id="polygon40"
         style="fill:#ffffff" /></g></g><g
     id="nyt_x5F_exporter_x5F_info"
     display="none" /></svg>

<?xml version="1.0" encoding="utf-8"?>
<!-- Generator: Adobe Illustrator 16.0.0, SVG Export Plug-In . SVG Version: 6.00 Build 0)  -->
<svg version="1.2" baseProfile="tiny" xmlns="http://www.w3.org/2000/svg" xmlns:xlink="http://www.w3.org/1999/xlink" x="0px"
	 y="0px" width="100px" height="100px" viewBox="0 0 100 100" xml:space="preserve">
<g id="Layer_3">
</g>
<g id="Layer_1">
	<g>
		<g>
			<path fill="#9D5025" d="M76.612,70.723v2.975c0,0.23-0.016,0.457-0.049,0.68v-2.975C76.597,71.182,76.612,70.955,76.612,70.723"
				/>
			<path fill="#9D5025" d="M76.563,71.402v2.975c-0.039,0.262-0.098,0.518-0.174,0.764v-2.973
				C76.466,71.924,76.524,71.666,76.563,71.402"/>
			<path fill="#9D5025" d="M76.39,72.168v2.973c-0.096,0.291-0.217,0.568-0.361,0.832V73C76.173,72.738,76.294,72.459,76.39,72.168"
				/>
			<path fill="#9D5025" d="M76.028,73v2.973c-0.809,1.467-2.379,2.457-4.186,2.457v-2.973C73.649,75.457,75.22,74.469,76.028,73"/>
		</g>
		<path fill="#9D5025" d="M76.612,70.723v2.975c0,2.619-2.131,4.732-4.77,4.732l-1.574-3.875
			C72.909,74.555,76.612,73.344,76.612,70.723z"/>
		<g>
			<path fill="#9D5025" d="M28.157,75.457v2.973c-2.639,0-4.77-2.113-4.77-4.732v-2.975C23.388,73.344,25.519,75.457,28.157,75.457"
				/>
		</g>
		<path fill="#9D5025" d="M28.157,75.457v2.973c-2.639,0-4.77-2.113-4.77-4.732v-2.975C23.388,73.344,25.519,75.457,28.157,75.457z"
			/>
		<g>
			<polygon fill="#9D5025" points="71.843,75.457 71.843,78.43 28.157,78.43 26.769,74.721 			"/>
		</g>
		<g>
			<path fill="#F58536" d="M71.843,21.57c2.639,0,4.77,2.113,4.77,4.734v44.418c0,2.621-2.131,4.734-4.77,4.734H28.157
				c-2.639,0-4.77-2.113-4.77-4.734V26.305c0-2.621,2.131-4.734,4.77-4.734H71.843z"/>
		</g>
		<rect x="51.104" y="54.936" fill="#FFFFFF" width="5.682" height="11.285"/>
		<rect x="58.071" y="49.143" fill="#FFFFFF" width="5.686" height="17.078"/>
		<rect x="65.036" y="58.789" fill="#FFFFFF" width="5.686" height="7.432"/>
		<polygon fill="#FFFFFF" points="70.312,67.062 51.466,67.062 50.644,67.062 50.644,67.881 50.644,69.305 50.644,70.123 
			51.466,70.123 70.312,70.123 71.134,70.123 71.134,69.305 71.134,67.881 71.134,67.062 		"/>
	</g>
</g>
<g id="nyt_x5F_exporter_x5F_info" display="none">
</g>
</svg>
